packages/components/src/components/icon/common/ic-selfie-verification-default.svg

<svg width="20" height="20" viewBox="0 0 20 20" fill="none" xmlns="http://www.w3.org/2000/svg">
<path fill-rule="evenodd" clip-rule="evenodd" d="M5.85355 6.43934C6.13486 6.15803 6.51639 6 6.91421 6H9.08579C9.48361 6 9.86514 6.15804 10.1464 6.43934L11.5607 7.85355C11.6544 7.94732 11.7816 8 11.9142 8H13.5C14.3284 8 15 8.67157 15 9.5V15.5C15 16.3284 14.3284 17 13.5 17H2.5C1.67157 17 1 16.3284 1 15.5V9.5C1 8.67157 1.67157 8 2.5 8H4.08579C4.21839 8 4.34557 7.94732 4.43934 7.85355L5.85355 6.43934ZM6.91421 7C6.78161 7 6.65443 7.05268 6.56066 7.14645L5.14645 8.56066C4.86514 8.84196 4.48361 9 4.08579 9H2.5C2.22386 9 2 9.22386 2 9.5V15.5C2 15.7761 2.22386 16 2.5 16H13.5C13.7761 16 14 15.7761 14 15.5V9.5C14 9.22386 13.7761 9 13.5 9H11.9142C11.5164 9 11.1349 8.84197 10.8536 8.56066L9.43934 7.14645C9.34557 7.05268 9.2184 7 9.08579 7H6.91421Z" fill="var(--fill-color1)"/>
<path fill-rule="evenodd" clip-rule="evenodd" d="M8 14C9.10457 14 10 13.1046 10 12C10 10.8954 9.10457 10 8 10C6.89543 10 6 10.8954 6 12C6 13.1046 6.89543 14 8 14ZM8 15C9.65685 15 11 13.6569 11 12C11 10.3431 9.65685 9 8 9C6.34315 9 5 10.3431 5 12C5 13.6569 6.34315 15 8 15Z" fill="var(--fill-color1)"/>
</svg>

<svg xmlns="http://www.w3.org/2000/svg" width="20" height="20" fill="none"><path fill="var(--fill-color1)" fill-rule="evenodd" d="M5.854 6.44A1.5 1.5 0 0 1 6.914 6h2.172a1.5 1.5 0 0 1 1.06.44l1.415 1.414a.5.5 0 0 0 .353.146H13.5A1.5 1.5 0 0 1 15 9.5v6a1.5 1.5 0 0 1-1.5 1.5h-11A1.5 1.5 0 0 1 1 15.5v-6A1.5 1.5 0 0 1 2.5 8h1.586a.5.5 0 0 0 .353-.146l1.415-1.415Zm1.06.56a.5.5 0 0 0-.353.146L5.146 8.561A1.5 1.5 0 0 1 4.086 9H2.5a.5.5 0 0 0-.5.5v6a.5.5 0 0 0 .5.5h11a.5.5 0 0 0 .5-.5v-6a.5.5 0 0 0-.5-.5h-1.586a1.5 1.5 0 0 1-1.06-.44L9.439 7.147A.5.5 0 0 0 9.086 7H6.914Z" clip-rule="evenodd"/><path fill="var(--fill-color1)" fill-rule="evenodd" d="M8 14a2 2 0 1 0 0-4 2 2 0 0 0 0 4Zm0 1a3 3 0 1 0 0-6 3 3 0 0 0 0 6Z" clip-rule="evenodd"/></svg>
